;FLAVOR:Marlin
;TIME:8075
;Filament used: 2.97997m
;Layer height: 0.13125
;Generated with Cura_SteamEngine 3.2.1
M190 S60
M104 S195
M109 S195
M82 ;absolute extrusion mode
G21;(metric values)
G90;(absolute positioning)
M82;(set extruder to absolute mode)
M107;(start with the fan off)
G28;(Home the printer)
G92 E0;(Reset the extruder to 0)
G0 Z5 E5 F500;(Move up and prime the nozzle)
G0 X-1 Z0;(Move outside the printable area)
G1 Y60 E8 F500;(Draw a priming/wiping line to the rear)
G1 X-1;(Move a little closer to the print area)
G1 Y10 E16 F500;(draw more priming/wiping)
G1 E15 F250;(Small retract)
G92 E0;(Zero the extruder)
;LAYER_COUNT:167
;LAYER:0
M107
G0 F900 X23.771 Y30.033 Z0.3
;TYPE:SKIRT
G1 X36.201 Y14.125 E0.8813
G1 X36.559 Y13.732 E0.90451
G1 X36.971 Y13.398 E0.92766
G1 X37.428 Y13.129 E0.95081
G1 X37.921 Y12.932 E0.97399
G1 X38.438 Y12.812 E0.99716
G1 X38.979 Y12.77 E1.02084
G1 X97.326 Y12.769 E3.56792
G1 X97.855 Y12.809 E3.59108
G1 X98.372 Y12.928 E3.61424
G1 X98.866 Y13.123 E3.63742
G1 X99.324 Y13.39 E3.66056
G1 X99.738 Y13.723 E3.68376
G1 X100.096 Y14.114 E3.7069
G1 X100.392 Y14.555 E3.73009
G1 X100.618 Y15.035 E3.75325
G1 X100.77 Y15.543 E3.77639
G1 X100.851 Y16.294 E3.80937
G1 X100.852 Y35.508 E4.64813
G1 X100.812 Y36.037 E4.67129
G1 X100.693 Y36.554 E4.69445
G1 X100.498 Y37.048 E4.71764
G1 X100.231 Y37.506 E4.74078
G1 X99.898 Y37.919 E4.76394
G1 X99.507 Y38.278 E4.78711
G1 X99.066 Y38.574 E4.8103
G1 X98.586 Y38.8 E4.83346
G1 X98.078 Y38.952 E4.85661
G1 X97.327 Y39.033 E4.88958
G1 X30.076 Y39.033 E7.82535
G1 X29.585 Y38.999 E7.84684
G1 X28.468 Y38.842 E7.89608
G1 X27.95 Y38.728 E7.91923
G1 X27.567 Y38.589 E7.93702
G1 X26.804 Y38.261 E7.97327
G1 X26.333 Y38.016 E7.99645
G1 X25.971 Y37.757 E8.01588
G1 X25.209 Y37.137 E8.05876
G1 X24.824 Y36.772 E8.08192
G1 X24.46 Y36.295 E8.10812
G1 X23.831 Y35.306 E8.15928
G1 X23.58 Y34.838 E8.18246
G1 X23.424 Y34.413 E8.20223
G1 X23.19 Y33.621 E8.23828
G1 X23.079 Y33.102 E8.26145
G1 X23.051 Y32.807 E8.27438
G1 X23.029 Y32.388 E8.2927
G1 X23.041 Y31.857 E8.31589
G1 X23.133 Y31.335 E8.33902
G1 X23.302 Y30.832 E8.36219
G1 X23.449 Y30.547 E8.37619
G0 F810 X23.544 Y30.36
G0 X23.771 Y30.033
G0 F900 X24.047 Y30.248
G1 F2400 E8.40273
G1 F900 X36.477 Y14.34 E9.28403
G1 X36.818 Y13.969 E9.30603
G1 X37.213 Y13.657 E9.328
G1 X37.652 Y13.411 E9.34997
G1 X38.125 Y13.237 E9.37197
G1 X38.619 Y13.14 E9.39395
G1 X38.979 Y13.12 E9.40969
G1 X97.326 Y13.119 E11.95676
G1 X97.828 Y13.159 E11.97875
G1 X98.317 Y13.278 E12.00071
G1 X98.782 Y13.472 E12.02271
G1 X99.21 Y13.738 E12.04471
G1 X99.59 Y14.068 E12.06668
G1 X99.913 Y14.454 E12.08865
G1 X100.172 Y14.886 E12.11064
G1 X100.359 Y15.354 E12.13264
G1 X100.469 Y15.845 E12.1546
G1 X100.501 Y16.294 E12.17425
G1 X100.502 Y35.508 E13.01302
G1 X100.462 Y36.01 E13.035
G1 X100.343 Y36.499 E13.05697
G1 X100.149 Y36.964 E13.07897
G1 X99.883 Y37.391 E13.10093
G1 X99.553 Y37.772 E13.12293
G1 X99.167 Y38.095 E13.14491
G1 X98.735 Y38.354 E13.16689
G1 X98.267 Y38.541 E13.18889
G1 X97.776 Y38.651 E13.21086
G1 X97.327 Y38.683 E13.23051
G1 X30.076 Y38.683 E16.16628
G1 X29.634 Y38.652 E16.18562
G1 X28.517 Y38.495 E16.23486
G1 X28.026 Y38.386 E16.25682
G1 X27.705 Y38.268 E16.27175
G1 X26.942 Y37.94 E16.308
G1 X26.497 Y37.705 E16.32997
G1 X26.192 Y37.486 E16.34636
G1 X25.43 Y36.866 E16.38925
G1 X25.066 Y36.518 E16.41123
G1 X24.755 Y36.107 E16.43373
G1 X24.126 Y35.118 E16.4849
G1 X23.89 Y34.673 E16.50689
G1 X23.76 Y34.314 E16.52355
G1 X23.526 Y33.522 E16.5596
G1 X23.4 Y32.788 E16.59212
G1 X23.378 Y32.369 E16.61043
G1 X23.392 Y31.866 E16.6324
G1 X23.485 Y31.371 E16.65438
G1 X23.655 Y30.897 E16.67637
G1 X23.728 Y30.765 E16.68295
G0 F810 X23.898 Y30.456
G0 X24.047 Y30.248
G1 F2400 E13.18295
G0 F900 X26.414 Y31.337
G0 X26.454 Y31.355
G0 X29.723 Y32.86
G0 X29.763 Y32.878
G0 X29.795 Y32.894
G0 X28.678 Y32.456
;TYPE:WALL-INNER
G1 F2400 E16.70949
G1 F900 X28.584 Y32.827 E16.7262
G1 X28.584 Y33.21 E16.74292
G1 X28.679 Y33.58 E16.7596
G1 X28.864 Y33.918 E16.77642
G1 X29.128 Y34.197 E16.79318
G1 X29.449 Y34.401 E16.80979
G1 X29.815 Y34.521 E16.8266
G1 X30.198 Y34.544 E16.84335
G1 X30.573 Y34.473 E16.86001
G1 X30.92 Y34.31 E16.87675
G1 X31.216 Y34.065 E16.89352
G1 X31.441 Y33.755 E16.91024
G1 X31.582 Y33.399 E16.92696
G1 X31.631 Y33.018 E16.94373
G1 X31.582 Y32.638 E16.96045
G1 X31.441 Y32.282 E16.97717
G1 X31.216 Y31.972 E16.99389
G1 X30.921 Y31.728 E17.0106
G1 X30.573 Y31.563 E17.02742
G1 X30.197 Y31.492 E17.04412
G1 X29.815 Y31.516 E17.06083
G1 X29.449 Y31.635 E17.07763
G1 X29.128 Y31.841 E17.09428
G1 X29.018 Y31.957 E17.10126
G0 F810 X28.865 Y32.118
G0 X28.678 Y32.456
G1 F2400 E13.60126
G0 F900 X29.795 Y32.894
G0 X30.446 Y32.9
G0 X30.49 Y32.9
G0 X40.593 Y33.007
G0 X40.637 Y33.007
G0 X41.531 Y33.018
G0 X42.731 Y33.018
G1 F2400 E17.1278
G1 F900 X42.678 Y32.614 E17.14559
G1 X42.529 Y32.234 E17.1634
G1 X42.289 Y31.903 E17.18125
G1 X41.973 Y31.642 E17.19914
G1 X41.604 Y31.468 E17.21695
G1 X41.203 Y31.392 E17.23477
G1 X40.795 Y31.418 E17.25262
G1 X40.407 Y31.545 E17.27044
G1 X40.063 Y31.763 E17.28822
G1 X39.783 Y32.06 E17.30604
G1 X39.586 Y32.419 E17.32391
G1 X39.485 Y32.814 E17.34171
G1 X39.485 Y33.222 E17.35952
G1 X39.585 Y33.617 E17.37731
G1 X39.783 Y33.977 E17.39524
G1 X40.063 Y34.274 E17.41306
G1 X40.407 Y34.492 E17.43084
G1 X40.796 Y34.619 E17.44871
G1 X41.188 Y34.644 E17.46585
G1 X41.204 Y34.644 E17.46655
G1 X41.208 Y34.644 E17.46673
G1 X41.604 Y34.568 E17.48433
G1 X41.973 Y34.394 E17.50214
G1 X42.289 Y34.133 E17.52003
G1 X42.529 Y33.803 E17.53784
G1 X42.606 Y33.609 E17.54695
G0 F810 X42.678 Y33.424
G0 X42.731 Y33.018
G1 F2400 E14.04695
G0 F900 X41.531 Y33.018
G0 X41.567 Y33.018
G0 X41.611 Y33.018
G0 X52.595 Y33.018
G0 X52.639 Y33.018
G0 X53.531 Y33.018
G0 X54.731 Y33.018
G1 F2400 E17.57349
G1 F900 X54.678 Y32.614 E17.59128
G1 X54.529 Y32.234 E17.6091
G1 X54.289 Y31.903 E17.62695
G1 X53.973 Y31.642 E17.64484
G1 X53.604 Y31.468 E17.66265
G1 X53.203 Y31.392 E17.68047
G1 X52.795 Y31.418 E17.69831
G1 X52.407 Y31.545 E17.71613
G1 X52.063 Y31.763 E17.73391
G1 X51.783 Y32.06 E17.75173
G1 X51.586 Y32.419 E17.76961
G1 X51.485 Y32.814 E17.78741
G1 X51.485 Y33.222 E17.80522
G1 X51.585 Y33.617 E17.823
G1 X51.783 Y33.977 E17.84094
G1 X52.063 Y34.274 E17.85876
G1 X52.407 Y34.492 E17.87654
G1 X52.796 Y34.619 E17.8944
G1 X53.188 Y34.644 E17.91155
G1 X53.204 Y34.644 E17.91225
G1 X53.208 Y34.644 E17.91242
G1 X53.604 Y34.568 E17.93002
G1 X53.973 Y34.394 E17.94783
G1 X54.289 Y34.133 E17.96572
G1 X54.529 Y33.803 E17.98354
G1 X54.606 Y33.609 E17.99265
G0 F810 X54.678 Y33.424
G0 X54.731 Y33.018
G1 F2400 E14.49265
G0 F900 X53.531 Y33.018
G0 X53.567 Y33.018
G0 X53.611 Y33.018
G0 X83.095 Y33.018
G0 X83.139 Y33.018
G0 X84.031 Y33.018
G0 X85.231 Y33.018
G1 F2400 E18.01919
G1 F900 X85.178 Y32.614 E18.03698
G1 X85.029 Y32.234 E18.0548
G1 X84.789 Y31.903 E18.07264
G1 X84.473 Y31.642 E18.09053
G1 X84.104 Y31.468 E18.10834
G1 X83.703 Y31.392 E18.12616
G1 X83.295 Y31.418 E18.14401
G1 X82.907 Y31.545 E18.16183
G1 X82.563 Y31.763 E18.17961
G1 X82.283 Y32.06 E18.19743
G1 X82.086 Y32.419 E18.2153
G1 X81.985 Y32.814 E18.2331
G1 X81.985 Y33.222 E18.25091
G1 X82.085 Y33.617 E18.2687
G1 X82.283 Y33.977 E18.28663
G1 X82.563 Y34.274 E18.30445
G1 X82.907 Y34.492 E18.32223
G1 X83.296 Y34.619 E18.3401
G1 X83.688 Y34.644 E18.35724
G1 X83.704 Y34.644 E18.35794
G1 X83.708 Y34.644 E18.35812
G1 X84.104 Y34.568 E18.37572
G1 X84.473 Y34.394 E18.39353
G1 X84.789 Y34.133 E18.41142
G1 X85.029 Y33.803 E18.42923
G1 X85.106 Y33.609 E18.43834
G0 F810 X85.178 Y33.424
G0 X85.231 Y33.018
G1 F2400 E14.93834
G0 F900 X84.031 Y33.018
G0 X84.065 Y33.019
G0 X84.109 Y33.019
G0 X95.312 Y33.411
G0 X95.356 Y33.411
G0 X95.734 Y33.427
G0 X96.473 Y34.394
G1 F2400 E18.46488
G1 F900 X96.789 Y34.133 E18.48278
G1 X96.811 Y34.103 E18.4844
G1 X96.811 Y34.133
G1 X96.811 Y34.394 E18.48448
G1 X96.811 Y34.403 E18.48487
G1 X96.811 Y34.993 E18.51063
G1 X95.709 Y34.993 E18.55873
G1 X95.704 Y34.993 E18.55895
G1 X95.688 Y34.993 E18.55965
G1 X83.709 Y34.993 E19.08258
G1 X83.704 Y34.993 E19.0828
G1 X83.688 Y34.993 E19.0835
G1 X53.209 Y34.993 E20.41403
G1 X53.204 Y34.993 E20.41424
G1 X53.188 Y34.993 E20.41494
G1 X41.209 Y34.993 E20.93787
G1 X41.204 Y34.993 E20.93809
G1 X41.188 Y34.993 E20.93879
G1 X30.092 Y34.993 E21.42317
G1 X29.23 Y34.901 E21.46101
G1 X28.444 Y34.569 E21.49826
G1 X27.795 Y34.034 E21.53498
G1 X27.31 Y33.3 E21.57338
G1 X27.068 Y32.479 E21.61075
G1 X27.065 Y32.38 E21.61507
G1 X39.231 Y16.809 E22.47768
G1 X39.7 Y16.809 E22.49816
G1 X39.783 Y16.809 E22.50178
G1 X40.02 Y16.809 E22.51213
G1 X39.783 Y17.06 E22.51664
G1 X39.744 Y17.132 E22.51977
G1 X39.586 Y17.419 E22.53407
G1 X39.485 Y17.814 E22.55187
G1 X39.485 Y18.222 E22.56968
G1 X39.585 Y18.617 E22.58747
G1 X39.783 Y18.977 E22.60541
G1 X40.063 Y19.274 E22.62322
G1 X40.407 Y19.492 E22.641
G1 X40.796 Y19.619 E22.65887
G1 X41.204 Y19.644 E22.67671
G1 X41.604 Y19.568 E22.69448
G1 X41.973 Y19.394 E22.71229
G1 X42.289 Y19.133 E22.73018
G1 X42.529 Y18.803 E22.748
G1 X42.678 Y18.424 E22.76577
G1 X42.731 Y18.018 E22.78365
G1 X42.678 Y17.614 E22.80144
G1 X42.529 Y17.234 E22.81925
G1 X42.436 Y17.106 E22.82616
G1 X42.288 Y16.902 E22.83716
G1 X42.175 Y16.809 E22.84355
G1 X42.288 Y16.809
G1 X42.54 Y16.809 E22.85095
G1 X51.7 Y16.809 E23.25082
G1 X51.783 Y16.809 E23.25445
G1 X52.02 Y16.809 E23.26479
G1 X51.783 Y17.06 E23.2693
G1 X51.744 Y17.132 E23.27244
G1 X51.586 Y17.419 E23.28674
G1 X51.485 Y17.814 E23.30454
G1 X51.485 Y18.222 E23.32235
G1 X51.585 Y18.617 E23.34014
G1 X51.783 Y18.977 E23.35807
G1 X52.063 Y19.274 E23.37589
G1 X52.407 Y19.492 E23.39367
G1 X52.796 Y19.619 E23.41153
G1 X53.204 Y19.644 E23.42938
G1 X53.604 Y19.568 E23.44715
G1 X53.973 Y19.394 E23.46496
G1 X54.289 Y19.133 E23.48285
G1 X54.529 Y18.803 E23.50066
G1 X54.678 Y18.424 E23.51844
G1 X54.731 Y18.018 E23.53632
G1 X54.678 Y17.614 E23.5541
G1 X54.529 Y17.234 E23.57192
G1 X54.436 Y17.106 E23.57883
G1 X54.288 Y16.902 E23.58983
G1 X54.175 Y16.809 E23.59622
G1 X54.288 Y16.809
G1 X54.54 Y16.809 E23.60362
G1 X82.2 Y16.809 E24.81109
G1 X82.283 Y16.809 E24.81471
G1 X82.52 Y16.809 E24.82506
G1 X82.283 Y17.06 E24.82957
G1 X82.244 Y17.132 E24.8327
G1 X82.086 Y17.419 E24.847
G1 X81.985 Y17.814 E24.8648
G1 X81.985 Y18.222 E24.88261
G1 X82.085 Y18.617 E24.9004
G1 X82.283 Y18.977 E24.91834
G1 X82.563 Y19.274 E24.93616
G1 X82.907 Y19.492 E24.95393
G1 X83.296 Y19.619 E24.9718
G1 X83.704 Y19.644 E24.98964
G1 X84.104 Y19.568 E25.00742
G1 X84.473 Y19.394 E25.02522
G1 X84.789 Y19.133 E25.04312
G1 X85.029 Y18.803 E25.06093
G1 X85.178 Y18.424 E25.07871
G1 X85.231 Y18.018 E25.09658
G1 X85.178 Y17.614 E25.11437
G1 X85.029 Y17.234 E25.13219
G1 X84.936 Y17.106 E25.13909
G1 X84.788 Y16.902 E25.15009
G1 X84.675 Y16.809 E25.15648
G1 X84.788 Y16.809
G1 X85.04 Y16.809 E25.16389
G1 X94.2 Y16.809 E25.56376
G1 X94.283 Y16.809 E25.56738
G1 X94.52 Y16.809 E25.57773
G1 X94.283 Y17.06 E25.58224
G1 X94.244 Y17.132 E25.58537
G1 X94.086 Y17.419 E25.59967
G1 X93.985 Y17.814 E25.61747
G1 X93.985 Y18.222 E25.63528
G1 X94.085 Y18.617 E25.65307
G1 X94.283 Y18.977 E25.671
G1 X94.563 Y19.274 E25.68882
G1 X94.907 Y19.492 E25.7066
G1 X95.296 Y19.619 E25.72446
G1 X95.704 Y19.644 E25.74231
G1 X96.104 Y19.568 E25.76008
G1 X96.464 Y19.398 E25.77746
G1 X96.473 Y19.394 E25.77789
G1 X96.789 Y19.133 E25.79578
G1 X96.81 Y19.104 E25.79735
G1 X96.81 Y19.133
G1 X96.81 Y19.393 E25.79947
G1 X96.81 Y19.403 E25.7999
G1 X96.81 Y31.632 E26.33374
G1 X96.81 Y31.642 E26.33418
G1 X96.81 Y31.902 E26.34553
G1 X96.811 Y31.933 E26.34688
G1 X96.789 Y31.903
G1 X96.473 Y31.642 E26.35697
G1 X96.464 Y31.638 E26.35739
G1 X96.104 Y31.468 E26.37477
G1 X95.703 Y31.392 E26.39258
G1 X95.295 Y31.418 E26.41043
G1 X94.907 Y31.545 E26.42825
G1 X94.563 Y31.763 E26.44603
G1 X94.283 Y32.06 E26.46385
G1 X94.086 Y32.419 E26.48173
G1 X93.985 Y32.814 E26.49952
G1 X93.985 Y33.222 E26.51734
G1 X94.085 Y33.617 E26.53512
G1 X94.283 Y33.977 E26.55306
G1 X94.563 Y34.274 E26.57088
G1 X94.907 Y34.492 E26.58866
G1 X95.296 Y34.619 E26.60652
G1 X95.688 Y34.644 E26.62367
G1 X95.704 Y34.644 E26.62436
G1 X95.708 Y34.644 E26.62454
G1 X96.104 Y34.568 E26.64214
G1 X96.465 Y34.397 E26.65958
G1 X96.473 Y34.394 E26.65995
G1 F2400 E23.15995
G0 F900 X95.833 Y33.381
G0 X95.836 Y32.617
G0 X95.836 Y32.573
G0 X95.911 Y18.405
G0 X95.911 Y18.361
G0 X95.916 Y17.725
G0 X96.788 Y16.902
G1 F2400 E26.65995
G1 F900 X96.756 Y16.876 E26.66175
G1 X96.675 Y16.809 E26.66633
G1 X96.788 Y16.809
G1 X96.81 Y16.809
G1 X96.81 Y16.902
G1 X96.81 Y16.932
G1 X96.795 Y16.912
G0 F810 X96.788 Y16.902
G0 F900 X96.903 Y18.018
;TYPE:WALL-OUTER
G1 X96.861 Y17.695 E26.68055
G1 X96.788 Y17.508 E26.68932
G1 X96.742 Y17.391 E26.6948
G1 X96.55 Y17.127 E26.70905
G1 X96.298 Y16.92 E26.72329
G1 X96.111 Y16.831 E26.73233
G1 X96.004 Y16.78 E26.73751
G1 X95.683 Y16.719 E26.75177
G1 X95.357 Y16.74 E26.76603
G1 X95.077 Y16.831 E26.77888
G1 X95.047 Y16.841 E26.78026
G1 X94.772 Y17.016 E26.79449
G1 X94.548 Y17.253 E26.80873
G1 X94.391 Y17.539 E26.82297
G1 X94.31 Y17.855 E26.83721
G1 X94.31 Y18.181 E26.85144
G1 X94.39 Y18.497 E26.86567
G1 X94.548 Y18.784 E26.87997
G1 X94.772 Y19.021 E26.89421
G1 X95.047 Y19.196 E26.90844
G1 X95.357 Y19.297 E26.92267
G1 X95.683 Y19.317 E26.93693
G1 X96.003 Y19.256 E26.95115
G1 X96.298 Y19.117 E26.96539
G1 X96.55 Y18.909 E26.97965
G1 X96.742 Y18.645 E26.9939
G1 X96.769 Y18.576 E26.99714
G0 F810 X96.788 Y18.528
G0 X96.861 Y18.342
G0 X96.903 Y18.018
G0 F900 X96.878 Y17.82
G1 F2400 E23.49714
G0 F900 X96.018 Y17.912
G0 X95.149 Y17.919
G0 X95.105 Y17.919
G0 X84.11 Y18.016
G0 X84.066 Y18.016
G0 X84.031 Y18.018
G0 X84.903 Y18.018
G1 F2400 E27.02232
G1 F900 X84.861 Y17.695 E27.03654
G1 X84.742 Y17.391 E27.05079
G1 X84.55 Y17.127 E27.06504
G1 X84.298 Y16.92 E27.07928
G1 X84.111 Y16.831 E27.08832
G1 X84.004 Y16.78 E27.0935
G1 X83.683 Y16.719 E27.10776
G1 X83.357 Y16.74 E27.12202
G1 X83.077 Y16.831 E27.13487
G1 X83.047 Y16.841 E27.13625
G1 X82.772 Y17.016 E27.15048
G1 X82.548 Y17.253 E27.16472
G1 X82.391 Y17.539 E27.17896
G1 X82.31 Y17.855 E27.1932
G1 X82.31 Y18.181 E27.20743
G1 X82.39 Y18.497 E27.22166
G1 X82.548 Y18.784 E27.23596
G1 X82.772 Y19.021 E27.2502
G1 X83.047 Y19.196 E27.26443
G1 X83.357 Y19.297 E27.27866
G1 X83.683 Y19.317 E27.29292
G1 X84.003 Y19.256 E27.30714
G1 X84.298 Y19.117 E27.32138
G1 X84.55 Y18.909 E27.33564
G1 X84.742 Y18.645 E27.34989
G1 X84.77 Y18.576 E27.35314
G0 F810 X84.861 Y18.342
G0 X84.903 Y18.018
G0 F900 X84.878 Y17.82
G1 F2400 E23.85314
G0 F900 X84.031 Y18.018
G0 X84.03 Y18.196
G0 X84.03 Y18.24
G0 X84.017 Y32.765
G0 X84.017 Y32.809
G0 X84.018 Y32.912
G0 X84.903 Y33.018
G1 F2400 E27.37833
G1 F900 X84.861 Y32.695 E27.39255
G1 X84.742 Y32.391 E27.4068
G1 X84.55 Y32.127 E27.42105
G1 X84.298 Y31.919 E27.43531
G1 X84.003 Y31.78 E27.44955
G1 X83.683 Y31.719 E27.46377
G1 X83.357 Y31.74 E27.47803
G1 X83.047 Y31.841 E27.49226
G1 X82.772 Y32.016 E27.50649
G1 X82.548 Y32.253 E27.52073
G1 X82.391 Y32.539 E27.53497
G1 X82.31 Y32.855 E27.54921
G1 X82.31 Y33.181 E27.56344
G1 X82.39 Y33.497 E27.57767
G1 X82.548 Y33.784 E27.59198
G1 X82.772 Y34.021 E27.60621
G1 X83.047 Y34.196 E27.62044
G1 X83.357 Y34.297 E27.63467
G1 X83.683 Y34.317 E27.64893
G1 X84.003 Y34.256 E27.66315
G1 X84.298 Y34.117 E27.67739
G1 X84.55 Y33.909 E27.69165
G1 X84.742 Y33.645 E27.7059
G1 X84.77 Y33.576 E27.70915
G0 F810 X84.861 Y33.342
G0 X84.903 Y33.018
G0 F900 X84.878 Y32.82
G1 F2400 E24.20915
G0 F900 X84.019 Y32.931
G0 X84.055 Y32.93
G0 X84.099 Y32.93
G0 X95.094 Y33.01
G0 X95.138 Y33.01
G0 X96.031 Y33.018
